icons/1_Primary/woelkli.svg

<svg xmlns="http://www.w3.org/2000/svg" width="1024" height="1024" fill="none">
   <g clip-path="url(#a)">
      <path fill="#728DBE" d="M512 1024c282.77 0 512-229.23 512-512S794.77 0 512 0 0 229.23 0 512s229.23 512 512 512Z"/>
      <path fill="#fff" d="M603.38 384.69c10.87-7.39 27.49 1.82 26.62 15 .17 27.8 0 55.62 0 83.44 16.45-15.48 32.74-31.12 49.08-46.74 3.67-3.54 8.53-6.19 13.8-5.58 10.54-.07 19.62 11 16.88 21.32-1.36 6.26-6.32 10.72-10.76 14.94-10.56 9.71-21 19.62-31.52 29.35A11420.52 11420.52 0 0 0 710.66 555c2.36 3.43 5 6.93 5.69 11.15 1.73 11.37-10 22.46-21.28 19.82-5.51-.81-9.93-4.64-12.95-9.12-13.49-18.63-27.16-37.14-40.72-55.73-3.72 3.91-8.66 7.13-11 12-1.07 13 .52 26.11-.59 39.13-1.2 10.61-14.48 17.63-24 12.95a16.746 16.746 0 0 1-10.67-16.93c0-55.42.07-110.84-.07-166.26-.83-6.82 2.03-14.01 8.31-17.32Zm-209.61 30.89c-5.07 9.47-.52 20.21 6.06 27.56-.31 6.58.52 13.19 3.81 19-17.17 23-18.07 54.24-11.9 81.25 4.09 15.9 14.19 31 29.33 38.16 21.67 10.5 49.58 8.73 68.74-6.32 12.69-9.86 19.84-25.3 22.44-40.9 3.48-23.77 1.88-49.8-12.31-70.1 8-4.7 13.82-13.25 13.23-22.81.68-9.6-5.49-17.78-12.75-23.29-.9-7.9-2.84-16.8-10.21-21.19-8.38-6-19.38-3.87-27.91.61-6-7.65-15.73-12.84-25.61-10.35-8.35 1.29-13.89 8.22-18.15 14.89-9.88-.18-20.97 3.51-24.77 13.49Zm47.66-18.09c9.38-.48 14.19 9.1 15.73 17 3.78-4.13 7.44-9 13-10.76 7-2.49 15.27 1.73 18.09 8.4 1.75 4.75.13 9.8-.59 14.59 5.64 2.23 12 4.75 14.68 10.63 3.74 8.64-3.63 19.18-12.69 19.84-6 .74-11.68-1.68-17.23-3.52-4.7 6.15-11.48 11.81-19.75 11-6.69.09-11.64-4.79-16.14-9.05-6 3.39-13.39 8.62-20.21 4-7.13-3.94-4.68-13-3.91-19.6-3.54-3.41-8-6.58-9.21-11.66-1.68-6.63 3.22-14 10-14.87 4.37-.33 8.6 1.07 12.79 2 2.01-7.79 5.83-17.98 15.43-18h.01ZM470 482.78c7.33 8.31 8.62 20 8.7 30.64 0 10.8-1.07 22.64-8.14 31.36-8 9.91-22.9 10.45-34.12 6.56-12.62-4.7-17.21-19.16-17.69-31.45-1.4-15.79 3.26-35.17 19.14-42.1 10.45-4.43 23.92-3.34 32.11 4.99Zm67.1-76.5c.09 55.44-.17 110.91.11 166.35-.48 10.41 10.13 18.13 20 16.25 9.23-.46 15.33-9.56 14.85-18.28.17-54.07 0-108.13.11-162.2 0-5.8-.44-12.25-4.59-16.73a18.589 18.589 0 0 0-20.49-4c-7.31 3.02-10.53 11.15-9.98 18.61h-.01ZM732.88 404v168.69c-.61 9.14 8 16.62 16.86 16.36 9.08.85 18.11-7 17.5-16.34 0-57 .13-113.9-.09-170.83.2-11.33-13.49-18.81-23.45-14.59A16.729 16.729 0 0 0 732.88 404Zm63.1 8.75c3.32 9.47 15.62 14.19 24.43 9.25 13.3-6.08 12.95-27.47.81-34.6-5-2.71-11.18-2.34-16.29-.24-9.24 4.16-12.45 16.54-8.93 25.55l-.02.04ZM193.69 537.64c-.11 11.35 3.06 22.9 9.78 32.15 17.89 23.64 55.77 27 78.19 7.87 22.44 18.77 60.85 16.62 78-8.27 8-11 10.43-25 10-38.27-.9-24.89 0-49.8-.48-74.67 0-6.76-5.66-11.92-11.46-14.35-10.74-5.07-24.34 4.88-23.36 16.58-.24 25.57.09 51.16-.09 76.72-.26 6.93-2.08 16-9.58 18.55-5.47 1.22-11.29.33-16.6-1.22-6.47-1.66-8.09-9.16-8.55-14.94-1.16-10.72 1.68-22.29-3.22-32.33-6.54-11.7-26.33-10.15-31.1 2.3-2.91 13.43 1.62 28.34-4.81 41.05-4.11 7.55-14.19 6.17-21.28 4.92-8.31-1.64-10.06-11.33-10.26-18.42-.37-25.48.15-51-.2-76.42.33-9.19-7.35-18.11-16.84-17.65-9.73-1.07-19 7.74-18.09 17.56-.05 26.28.06 52.57-.05 78.84Zm600.89-74.3c.26 36.35-.24 72.74.24 109.09-.22 11.39 12.84 20.38 23.4 16.05 7.63-2.36 12.36-10.21 11.94-18 0-37.14.09-74.27 0-111.41.79-12.53-13.58-22.29-25-16.93-8.16 3.29-10.82 13.17-10.58 21.2Z"/>
   </g>
   <defs>
      <clipPath id="a">
         <path fill="#fff" d="M0 0h1024v1024H0z"/>
      </clipPath>
   </defs>
</svg>

<svg width="1024" height="1024" viewBox="0 0 1024 1024" fill="none" xmlns="http://www.w3.org/2000/svg">
<g clip-path="url(#clip0_2_3948)">
<path d="M512 1024C794.77 1024 1024 794.77 1024 512C1024 229.23 794.77 0 512 0C229.23 0 0 229.23 0 512C0 794.77 229.23 1024 512 1024Z" fill="#728DBE"/>
<path d="M603.38 384.69C614.25 377.3 630.87 386.51 630 399.69C630.17 427.49 630 455.31 630 483.13C646.45 467.65 662.74 452.01 679.08 436.39C682.75 432.85 687.61 430.2 692.88 430.81C703.42 430.74 712.5 441.81 709.76 452.13C708.4 458.39 703.44 462.85 699 467.07C688.44 476.78 678 486.69 667.48 496.42C681.826 516.013 696.22 535.54 710.66 555C713.02 558.43 715.66 561.93 716.35 566.15C718.08 577.52 706.35 588.61 695.07 585.97C689.56 585.16 685.14 581.33 682.12 576.85C668.63 558.22 654.96 539.71 641.4 521.12C637.68 525.03 632.74 528.25 630.4 533.12C629.33 546.12 630.92 559.23 629.81 572.25C628.61 582.86 615.33 589.88 605.81 585.2C602.446 583.902 599.591 581.553 597.668 578.503C595.746 575.453 594.859 571.864 595.14 568.27C595.14 512.85 595.21 457.43 595.07 402.01C594.24 395.19 597.1 388 603.38 384.69ZM393.77 415.58C388.7 425.05 393.25 435.79 399.83 443.14C399.52 449.72 400.35 456.33 403.64 462.14C386.47 485.14 385.57 516.38 391.74 543.39C395.83 559.29 405.93 574.39 421.07 581.55C442.74 592.05 470.65 590.28 489.81 575.23C502.5 565.37 509.65 549.93 512.25 534.33C515.73 510.56 514.13 484.53 499.94 464.23C507.94 459.53 513.76 450.98 513.17 441.42C513.85 431.82 507.68 423.64 500.42 418.13C499.52 410.23 497.58 401.33 490.21 396.94C481.83 390.94 470.83 393.07 462.3 397.55C456.3 389.9 446.57 384.71 436.69 387.2C428.34 388.49 422.8 395.42 418.54 402.09C408.66 401.91 397.57 405.6 393.77 415.58ZM441.43 397.49C450.81 397.01 455.62 406.59 457.16 414.49C460.94 410.36 464.6 405.49 470.16 403.73C477.16 401.24 485.43 405.46 488.25 412.13C490 416.88 488.38 421.93 487.66 426.72C493.3 428.95 499.66 431.47 502.34 437.35C506.08 445.99 498.71 456.53 489.65 457.19C483.65 457.93 477.97 455.51 472.42 453.67C467.72 459.82 460.94 465.48 452.67 464.67C445.98 464.76 441.03 459.88 436.53 455.62C430.53 459.01 423.14 464.24 416.32 459.62C409.19 455.68 411.64 446.62 412.41 440.02C408.87 436.61 404.41 433.44 403.2 428.36C401.52 421.73 406.42 414.36 413.2 413.49C417.57 413.16 421.8 414.56 425.99 415.49C428 407.7 431.82 397.51 441.42 397.49H441.43ZM470 482.78C477.33 491.09 478.62 502.78 478.7 513.42C478.7 524.22 477.63 536.06 470.56 544.78C462.56 554.69 447.66 555.23 436.44 551.34C423.82 546.64 419.23 532.18 418.75 519.89C417.35 504.1 422.01 484.72 437.89 477.79C448.34 473.36 461.81 474.45 470 482.78ZM537.1 406.28C537.19 461.72 536.93 517.19 537.21 572.63C536.73 583.04 547.34 590.76 557.21 588.88C566.44 588.42 572.54 579.32 572.06 570.6C572.23 516.53 572.06 462.47 572.17 408.4C572.17 402.6 571.73 396.15 567.58 391.67C564.957 389.028 561.602 387.235 557.949 386.522C554.296 385.809 550.513 386.209 547.09 387.67C539.78 390.69 536.56 398.82 537.11 406.28H537.1ZM732.88 404V572.69C732.27 581.83 740.88 589.31 749.74 589.05C758.82 589.9 767.85 582.05 767.24 572.71C767.24 515.71 767.37 458.81 767.15 401.88C767.35 390.55 753.66 383.07 743.7 387.29C740.344 388.549 737.482 390.852 735.534 393.86C733.586 396.869 732.656 400.423 732.88 404ZM795.98 412.75C799.3 422.22 811.6 426.94 820.41 422C833.71 415.92 833.36 394.53 821.22 387.4C816.22 384.69 810.04 385.06 804.93 387.16C795.69 391.32 792.48 403.7 796 412.71L795.98 412.75ZM193.69 537.64C193.58 548.99 196.75 560.54 203.47 569.79C221.36 593.43 259.24 596.79 281.66 577.66C304.1 596.43 342.51 594.28 359.66 569.39C367.66 558.39 370.09 544.39 369.66 531.12C368.76 506.23 369.66 481.32 369.18 456.45C369.18 449.69 363.52 444.53 357.72 442.1C346.98 437.03 333.38 446.98 334.36 458.68C334.12 484.25 334.45 509.84 334.27 535.4C334.01 542.33 332.19 551.4 324.69 553.95C319.22 555.17 313.4 554.28 308.09 552.73C301.62 551.07 300 543.57 299.54 537.79C298.38 527.07 301.22 515.5 296.32 505.46C289.78 493.76 269.99 495.31 265.22 507.76C262.31 521.19 266.84 536.1 260.41 548.81C256.3 556.36 246.22 554.98 239.13 553.73C230.82 552.09 229.07 542.4 228.87 535.31C228.5 509.83 229.02 484.31 228.67 458.89C229 449.7 221.32 440.78 211.83 441.24C202.1 440.17 192.83 448.98 193.74 458.8C193.69 485.08 193.8 511.37 193.69 537.64ZM794.58 463.34C794.84 499.69 794.34 536.08 794.82 572.43C794.6 583.82 807.66 592.81 818.22 588.48C825.85 586.12 830.58 578.27 830.16 570.48C830.16 533.34 830.25 496.21 830.16 459.07C830.95 446.54 816.58 436.78 805.16 442.14C797 445.43 794.34 455.31 794.58 463.34Z" fill="white"/>
</g>
<defs>
<clipPath id="clip0_2_3948">
<rect width="1024" height="1024" fill="white"/>
</clipPath>
</defs>
</svg>
